public/images/brand_logos/hubspot.svg

<svg width="85" height="24" viewBox="0 0 85 24" fill="none" xmlns="http://www.w3.org/2000/svg">
<g clip-path="url(#clip0)">
<path d="M9.59675 3.97278V10.7425H3.42846V3.97278H0.5V20.1328H3.42846V13.5829H9.59675V20.1328H12.5252V3.97278H9.59675Z" fill="#33475B"/>
<path d="M21.8974 14.9091C21.8974 15.5567 21.6422 16.1779 21.1878 16.6358C20.7335 17.0938 20.1173 17.351 19.4747 17.351C18.8322 17.351 18.216 17.0938 17.7616 16.6358C17.3073 16.1779 17.052 15.5567 17.052 14.9091V7.98749H14.2742V14.9091C14.2742 16.298 14.8216 17.63 15.796 18.612C16.7703 19.5941 18.0918 20.1459 19.4697 20.1459C20.8476 20.1459 22.1691 19.5941 23.1435 18.612C24.1178 17.63 24.6652 16.298 24.6652 14.9091V7.98749H21.8974V14.9091Z" fill="#33475B"/>
<path d="M42.4786 8.70047C42.4786 7.28173 43.4098 6.83195 44.43 6.83195C45.2521 6.83195 46.3383 7.4625 47.0485 8.22755L48.8679 6.0669C47.9596 4.82894 46.1173 3.97278 44.6093 3.97278C41.5962 3.97278 39.4167 5.75163 39.4167 8.70047C39.4167 14.1715 46.0513 12.4361 46.0513 15.4977C46.0513 16.4421 45.1416 17.2765 44.1 17.2765C42.4571 17.2765 41.9248 16.4667 41.1701 15.6105L39.1513 17.7263C40.4426 19.3244 42.0352 20.1357 43.9436 20.1357C46.806 20.1357 49.1089 18.3352 49.1089 15.5208C49.1089 9.44672 42.4743 11.334 42.4743 8.70047" fill="#33475B"/>
<path d="M83.5228 17.5513C81.8814 17.5513 81.4151 16.8355 81.4151 15.7392V10.8872H83.9662V8.42859H81.4151V5.18472L78.5985 6.45884V16.3423C78.5985 18.8703 80.3289 20.1444 82.7021 20.1444C83.0743 20.1512 83.4463 20.1212 83.8127 20.0547L84.4999 17.5051C84.19 17.5268 83.8342 17.5484 83.5228 17.5484" fill="#33475B"/>
<path d="M32.4706 8.06847C31.0946 8.06847 30.1347 8.47051 29.2064 9.38886V4.06967H26.4243V13.9285C26.4243 17.6193 29.0715 20.1473 32.0459 20.1473C35.346 20.1473 38.2486 17.5745 38.2486 14.1093C38.2486 10.6876 35.577 8.06991 32.4706 8.06991V8.06847ZM32.4534 17.3257C31.8291 17.3257 31.2188 17.1391 30.6997 16.7895C30.1806 16.4399 29.776 15.943 29.5371 15.3616C29.2982 14.7802 29.2356 14.1405 29.3574 13.5233C29.4792 12.9061 29.7799 12.3392 30.2213 11.8942C30.6628 11.4493 31.2253 11.1463 31.8376 11.0235C32.4499 10.9007 33.0846 10.9637 33.6614 11.2045C34.2382 11.4454 34.7312 11.8532 35.078 12.3764C35.4249 12.8996 35.61 13.5148 35.61 14.144C35.61 14.9879 35.2774 15.7971 34.6854 16.3938C34.0935 16.9905 33.2906 17.3257 32.4534 17.3257Z" fill="#33475B"/>
<path d="M62.6792 13.9618C62.6792 10.4909 59.7823 7.92386 56.4765 7.92386C53.5021 7.92386 50.8549 10.4518 50.8549 14.1426V24.0072H53.637V18.6808C54.5639 19.5977 55.5252 20.0012 56.8997 20.0012C60.0061 20.0012 62.6778 17.385 62.6778 13.9618H62.6792ZM60.0449 13.9271C60.0449 14.5564 59.8597 15.1715 59.5129 15.6948C59.166 16.218 58.673 16.6258 58.0962 16.8666C57.5194 17.1074 56.8848 17.1704 56.2724 17.0477C55.6601 16.9249 55.0977 16.6219 54.6562 16.1769C54.2148 15.7319 53.9141 15.165 53.7923 14.5478C53.6705 13.9306 53.733 13.2909 53.9719 12.7095C54.2109 12.1282 54.6155 11.6312 55.1346 11.2816C55.6537 10.932 56.2639 10.7454 56.8883 10.7454C57.7254 10.7454 58.5283 11.0806 59.1203 11.6773C59.7123 12.274 60.0449 13.0833 60.0449 13.9271Z" fill="#33475B"/>
<path d="M71.667 7.7879V4.97066C72.0364 4.7967 72.3492 4.52057 72.5689 4.17442C72.7886 3.82826 72.9063 3.42631 72.9082 3.01538V2.9503C72.9082 2.37496 72.6814 1.82318 72.2778 1.41635C71.8742 1.00952 71.3267 0.780969 70.7559 0.780969H70.6914C70.1206 0.780969 69.5731 1.00952 69.1695 1.41635C68.7659 1.82318 68.5391 2.37496 68.5391 2.9503V3.01538C68.541 3.42631 68.6587 3.82826 68.8784 4.17442C69.0981 4.52057 69.4109 4.7967 69.7803 4.97066V7.7879C68.7186 7.9516 67.7188 8.39513 66.8819 9.07359L59.2171 3.05587C59.2714 2.85743 59.3003 2.65283 59.3032 2.44701C59.3041 1.96355 59.1627 1.4907 58.8968 1.08826C58.631 0.685821 58.2528 0.371877 57.81 0.186138C57.3671 0.000399539 56.8796 -0.0487899 56.409 0.0447919C55.9384 0.138374 55.506 0.370522 55.1663 0.711874C54.8266 1.05323 54.595 1.48845 54.5008 1.96248C54.4066 2.43652 54.4539 2.92808 54.6369 3.37499C54.8198 3.82189 55.1302 4.20407 55.5287 4.47317C55.9272 4.74227 56.3959 4.88621 56.8755 4.88678C57.2949 4.88489 57.7065 4.7722 58.0693 4.55994L65.6179 10.4793C64.9396 11.5119 64.5857 12.7265 64.6023 13.9647C64.619 15.203 65.0054 16.4075 65.7111 17.4212L63.4154 19.7351C63.2298 19.6754 63.0363 19.6437 62.8415 19.6411C62.4477 19.6414 62.0629 19.7593 61.7356 19.98C61.4083 20.2007 61.1533 20.5142 61.0027 20.8809C60.8522 21.2477 60.8128 21.6512 60.8897 22.0404C60.9666 22.4297 61.1563 22.7872 61.4347 23.0679C61.7131 23.3485 62.0679 23.5397 62.454 23.6172C62.8402 23.6947 63.2405 23.655 63.6044 23.5033C63.9682 23.3515 64.2793 23.0945 64.4982 22.7646C64.7171 22.4347 64.8342 22.0468 64.8344 21.6499C64.832 21.4535 64.8005 21.2585 64.7412 21.0714L67.0125 18.7821C67.7531 19.3565 68.6144 19.7525 69.5303 19.9397C70.4462 20.1269 71.3924 20.1003 72.2965 19.862C73.2007 19.6236 74.0387 19.1799 74.7464 18.5647C75.4541 17.9496 76.0128 17.1793 76.3796 16.3129C76.7464 15.4466 76.9116 14.5071 76.8625 13.5664C76.8135 12.6257 76.5515 11.7089 76.0966 10.886C75.6418 10.0632 75.0061 9.35617 74.2383 8.81916C73.4705 8.28216 72.591 7.92939 71.667 7.7879ZM70.7258 17.0524C70.1045 17.0518 69.4973 16.8656 68.981 16.5173C68.4647 16.169 68.0624 15.6742 67.8249 15.0955C67.5875 14.5168 67.5256 13.8802 67.647 13.266C67.7685 12.6519 68.0679 12.0878 68.5073 11.6451C68.9467 11.2024 69.5065 10.9009 70.1158 10.7788C70.7252 10.6566 71.3568 10.7193 71.9308 10.9589C72.5049 11.1985 72.9955 11.6042 73.3409 12.1248C73.6862 12.6454 73.8706 13.2575 73.8709 13.8837C73.8709 14.7237 73.5399 15.5293 72.9506 16.1233C72.3613 16.7172 71.562 17.0509 70.7287 17.0509" fill="#FF7A59"/>
</g>
<defs>
<clipPath id="clip0">
<rect width="84" height="24" fill="white" transform="translate(0.5)"/>
</clipPath>
</defs>
</svg>

<svg width="85" height="24" fill="none" xmlns="http://www.w3.org/2000/svg"><g clip-path="url(#clip0)"><path d="M9.597 3.973v6.77H3.428v-6.77H.5v16.16h2.928v-6.55h6.169v6.55h2.928V3.973H9.597zM21.897 14.91c0 .647-.255 1.268-.71 1.726a2.413 2.413 0 01-3.425 0 2.452 2.452 0 01-.71-1.727V7.987h-2.778v6.922c0 1.389.548 2.721 1.522 3.703a5.175 5.175 0 003.674 1.534c1.378 0 2.7-.552 3.674-1.534a5.258 5.258 0 001.521-3.703V7.987h-2.768v6.922zM42.479 8.7c0-1.418.93-1.868 1.951-1.868.822 0 1.908.63 2.618 1.396l1.82-2.161c-.908-1.238-2.75-2.094-4.259-2.094-3.013 0-5.192 1.779-5.192 4.727 0 5.472 6.634 3.736 6.634 6.798 0 .944-.91 1.778-1.951 1.778-1.643 0-2.175-.81-2.93-1.665l-2.019 2.115c1.292 1.598 2.884 2.41 4.793 2.41 2.862 0 5.165-1.8 5.165-4.615 0-6.074-6.635-4.187-6.635-6.82M83.523 17.551c-1.642 0-2.108-.715-2.108-1.812v-4.852h2.551V8.43h-2.55V5.185l-2.817 1.274v9.883c0 2.528 1.73 3.802 4.103 3.802.372.007.744-.023 1.11-.09l.688-2.549c-.31.022-.666.043-.977.043M32.47 8.068c-1.375 0-2.335.403-3.264 1.32V4.07h-2.782v9.858c0 3.691 2.648 6.22 5.622 6.22 3.3 0 6.203-2.573 6.203-6.039 0-3.421-2.672-6.04-5.778-6.04zm-.017 9.258a3.139 3.139 0 01-1.753-.537 3.176 3.176 0 01-1.163-1.427 3.205 3.205 0 01.684-3.468 3.133 3.133 0 013.44-.69c.577.241 1.07.65 1.417 1.172a3.2 3.2 0 01-.393 4.018 3.144 3.144 0 01-2.232.932zM62.68 13.962c0-3.471-2.898-6.038-6.203-6.038-2.975 0-5.622 2.528-5.622 6.219v9.864h2.782v-5.326c.927.917 1.888 1.32 3.263 1.32 3.106 0 5.778-2.616 5.778-6.04h.001zm-2.635-.035a3.2 3.2 0 01-.532 1.768c-.347.523-.84.93-1.417 1.172a3.134 3.134 0 01-3.44-.69 3.205 3.205 0 01-.684-3.467 3.178 3.178 0 011.163-1.428 3.139 3.139 0 013.985.395c.592.597.925 1.406.925 2.25z" fill="#33475B"/><path d="M71.667 7.788V4.97c.37-.174.682-.45.902-.797.22-.346.337-.748.34-1.159V2.95c0-.575-.228-1.127-.631-1.534a2.144 2.144 0 00-1.522-.635h-.065c-.57 0-1.118.229-1.522.635-.403.407-.63.959-.63 1.534v.065c.002.411.12.813.34 1.16.22.346.532.622.901.796v2.817a6.072 6.072 0 00-2.898 1.286l-7.665-6.018c.054-.199.083-.403.086-.609.001-.483-.14-.956-.406-1.359A2.43 2.43 0 0057.81.186a2.407 2.407 0 00-2.644.526 2.462 2.462 0 00-.53 2.663c.184.447.494.83.893 1.098.398.27.867.413 1.346.414.42-.002.831-.115 1.194-.327l7.549 5.92a6.198 6.198 0 00.093 6.941l-2.296 2.314a1.96 1.96 0 00-.573-.094 1.98 1.98 0 00-1.106.339c-.328.22-.583.534-.733.9a2.023 2.023 0 00.432 2.188 1.987 1.987 0 002.17.435c.363-.151.674-.409.893-.738.22-.33.336-.718.336-1.115a1.996 1.996 0 00-.093-.579l2.272-2.289a6.077 6.077 0 005.284 1.08 6.108 6.108 0 002.45-1.297 6.17 6.17 0 001.633-2.252 6.214 6.214 0 00-.283-5.427 6.155 6.155 0 00-1.859-2.067 6.096 6.096 0 00-2.571-1.031zm-.941 9.264a3.125 3.125 0 01-1.745-.535 3.163 3.163 0 01-1.156-1.421 3.191 3.191 0 01.682-3.45 3.119 3.119 0 013.424-.686c.574.239 1.065.644 1.41 1.165a3.185 3.185 0 01-.39 3.998 3.13 3.13 0 01-2.222.928" fill="#FF7A59"/></g><defs><clipPath id="clip0"><path fill="#fff" transform="translate(.5)" d="M0 0h84v24H0z"/></clipPath></defs></svg>
